X:323
T:Nine Pound Hammer
C:Roland White solo
N:From the Album "Appalachian Swing" Transcribed by Mike Stangeland
R:bluegrass
L:1/8
Q:1/4=239
M:4/4
K:A
z[AE] [A2E2] [A2E2] [AF]A | "A"[AA][AA] [AA][AA] [AA][AA] [AA][AA] | [AA][AA] A=c Bc Bc | 
"D"A2 [AF][AF] [AF][AF] [AF][AF] | FF A=c Bc Bc | "A"[AA][AA] [AA][AA] [AA][AA] [A2F2] | 
"E"EB B=c BA FE | "A"[A2A2] [A2A2] [AA][AA] [AA][AA] | [A2A2] {d}ee ef ee | cB AA AA AA | 
AA AA ef ee | "D"=cB AA AA =F^F | A2 AA AA AA | "A"AA AA AA FA | "E"E2 E2 EF GB | 
"A"A2 Ac BA FE | A2 [A2E2] [A2E2] [A2E2] | "A"[aA][aA] [aA][aA] [aA][aA] ae | 
z=c Bc cB cB | AA {=F}^FF FA AA | "D"=cB Ac BA F2 | "A"A,B, CE F=G A=c | "E"B=c Bc cB AF | 
"A"A2 Ac BA FE | A2 AA AA Ae | af ec (3B=cB AF | ea fe A=c Bc | "D"A2 FF FA AA | 
=cB Ac BA F2 | FA =c^c =cB AF | "E"E2 EE EF GB | "A"A2 Ac BA FE | A8 | 


